Catalina-light/actions/16/system-run-symbolic.svg

<?xml version="1.0" encoding="UTF-8" standalone="no"?>
<svg
   xmlns:dc="http://purl.org/dc/elements/1.1/"
   xmlns:cc="http://creativecommons.org/ns#"
   xmlns:rdf="http://www.w3.org/1999/02/22-rdf-syntax-ns#"
   xmlns:svg="http://www.w3.org/2000/svg"
   xmlns="http://www.w3.org/2000/svg"
   xmlns:sodipodi="http://sodipodi.sourceforge.net/DTD/sodipodi-0.dtd"
   xmlns:inkscape="http://www.inkscape.org/namespaces/inkscape"
   viewBox="0 0 16 16"
   id="svg3259"
   version="1.1"
   inkscape:version="0.91 r13725"
   sodipodi:docname="system-run-symbolic.svg">
  <metadata
     id="metadata3267">
    <rdf:RDF>
      <cc:Work
         rdf:about="">
        <dc:format>image/svg+xml</dc:format>
        <dc:type
           rdf:resource="http://purl.org/dc/dcmitype/StillImage" />
      </cc:Work>
    </rdf:RDF>
  </metadata>
  <sodipodi:namedview
     pagecolor="#ffffff"
     bordercolor="#666666"
     borderopacity="1"
     objecttolerance="10"
     gridtolerance="10"
     guidetolerance="10"
     inkscape:pageopacity="0"
     inkscape:pageshadow="2"
     inkscape:window-width="640"
     inkscape:window-height="480"
     id="namedview3265"
     showgrid="false"
     inkscape:zoom="41.1875"
     inkscape:cx="3.6783005"
     inkscape:cy="8"
     inkscape:current-layer="svg3259" />
  <defs
     id="defs3051">
    <style
       type="text/css"
       id="current-color-scheme">
      .ColorScheme-Text {
        color:#bebebe;
      }
      </style>
  </defs>
  <path
     style="color:#bebebe;fill:currentColor;fill-opacity:1;stroke:none"
     class="ColorScheme-Text"
     d="m 7.1328122,2.0000007 c -0.1510296,0 -0.2448112,0.073439 -0.28125,0.219308 C 6.7838625,2.4796572 6.7088878,2.9640822 6.6255578,3.6724336 6.3807459,3.7506908 6.1432437,3.848982 5.9140622,3.9687506 L 4.8359374,3.1333711 c -0.0677,-0.052028 -0.1348674,-0.078683 -0.202567,-0.078683 -0.1145908,0 -0.3606592,0.1867145 -0.7382812,0.5591517 C 3.5174671,3.9862856 3.2604951,4.2650932 3.125,4.4525675 3.078109,4.5202825 3.054688,4.5812996 3.054688,4.6333711 c 0,0.062486 0.026614,0.1250743 0.078683,0.1874999 0.34895,0.4219286 0.6270061,0.7811507 0.8353791,1.0781249 C 3.8385288,6.1385331 3.7369401,6.3776507 3.6640624,6.617188 L 2.2109375,6.8364959 C 2.1536898,6.8469531 2.1036549,6.8796167 2.0619419,6.9369423 2.0202308,6.9941995 2,7.0553202 2,7.1177459 l 0,1.7343749 c 0,0.0678 0.020229,0.1278176 0.061942,0.1824772 0.041713,0.05477 0.096363,0.08842 0.1640625,0.09877 l 1.4296874,0.210937 c 0.072878,0.255163 0.1807552,0.513089 0.3214285,0.773437 -0.093686,0.130218 -0.2344064,0.313739 -0.4218749,0.550781 -0.1874686,0.237044 -0.3203815,0.40956 -0.3984374,0.518975 -0.041713,0.05743 -0.063616,0.116608 -0.063616,0.179128 0,0.06772 0.018806,0.128733 0.055246,0.180804 0.203099,0.281349 0.6327787,0.718835 1.2890624,1.312501 0.057344,0.05734 0.1229928,0.08538 0.1958706,0.08538 0.078152,0 0.1421272,-0.02352 0.1941963,-0.07032 L 5.9291288,12.03962 c 0.2136471,0.109414 0.4479568,0.204519 0.703125,0.287945 l 0.219308,1.438058 c 0.00527,0.06772 0.035744,0.123114 0.090402,0.167411 C 6.9966223,13.977436 7.0599344,14 7.1328122,14 l 1.7343749,0 c 0.1512215,0 0.2447152,-0.07344 0.2812501,-0.219307 0.067604,-0.260443 0.1426744,-0.744775 0.2260043,-1.453126 0.2448119,-0.07817 0.4824098,-0.176549 0.7114955,-0.296317 l 1.078125,0.84375 c 0.07287,0.0468 0.141816,0.07032 0.204241,0.07032 0.114495,0 0.358322,-0.184272 0.733259,-0.554129 0.375128,-0.369755 0.632956,-0.651005 0.773438,-0.843751 0.04689,-0.05203 0.07031,-0.113097 0.07031,-0.180803 0,-0.06772 -0.02652,-0.131873 -0.07868,-0.194197 -0.374937,-0.458365 -0.652993,-0.817682 -0.835379,-1.078124 0.104138,-0.192746 0.205727,-0.43025 0.304688,-0.711496 l 1.444756,-0.219312 c 0.06243,-0.01046 0.11575,-0.04311 0.157366,-0.100447 C 13.979671,9.005715 14,8.9446805 14,8.8822547 L 14,7.1478798 C 14.000095,7.0801658 13.97987,7.0201565 13.93806,6.9654022 13.89625,6.9106302 13.8417,6.8769842 13.773998,6.8666302 L 12.34431,6.6489962 c -0.07816,-0.2499857 -0.186029,-0.5062981 -0.321428,-0.766741 0.09369,-0.1302171 0.234406,-0.3137383 0.421875,-0.5507812 0.187468,-0.2370429 0.320286,-0.4095589 0.398438,-0.5189732 0.04171,-0.057343 0.06362,-0.1166094 0.06362,-0.1791294 0,-0.072857 -0.01872,-0.1307246 -0.05524,-0.172433 -0.187469,-0.2657144 -0.617148,-0.7077242 -1.289062,-1.327567 -0.06233,-0.052028 -0.128267,-0.078683 -0.195871,-0.078683 -0.07816,0 -0.140609,0.023512 -0.1875,0.070312 L 10.07087,3.96038 C 9.8572234,3.8509658 9.6229133,3.7557651 9.3677451,3.6724336 L 9.1484372,2.2343757 C 9.1432599,2.1666613 9.1126933,2.1112621 9.0580353,2.066965 9.003281,2.0226506 8.9402567,2.0000007 8.8671871,2.0000007 l -1.7343749,0 z m 0.8671875,3.9994417 c 0.5521452,0 1.024053,0.1953718 1.4146204,0.5859375 0.3905673,0.3906686 0.5859369,0.8624747 0.5859369,1.4146204 0,0.5521458 -0.1953696,1.0240547 -0.5859369,1.4146207 -0.3905674,0.39066 -0.8624752,0.585937 -1.4146204,0.585937 -0.5521452,0 -1.0239572,-0.195277 -1.4146204,-0.585937 C 6.1948118,9.024055 5.9994417,8.5521461 5.9994417,8.0000003 c 0,-0.5521457 0.1952742,-1.0239518 0.5859376,-1.4146204 C 6.9760425,6.1948142 7.4479504,5.9994424 7.9999997,5.9994424 Z"
     id="path3263"
     inkscape:connector-curvature="0" />
</svg>

<svg version="1.1" viewBox="0 0 16 16" xmlns="http://www.w3.org/2000/svg">
<defs>
<style id="current-color-scheme" type="text/css">.ColorScheme-Text {
        color:#bebebe;
      }</style>
</defs>
<path class="ColorScheme-Text" d="m7.1328 2c-0.15103 0-0.24481 0.073439-0.28125 0.21931-0.0677 0.26035-0.14267 0.74477-0.226 1.4531-0.24481 0.078257-0.48231 0.17655-0.7115 0.29632l-1.0781-0.83538c-0.0677-0.052028-0.13487-0.078683-0.20257-0.078683-0.11459 0-0.36066 0.18671-0.73828 0.55915-0.37762 0.37245-0.63459 0.65125-0.77009 0.83873-0.046891 0.067715-0.070312 0.12873-0.070312 0.1808 0 0.062486 0.026614 0.12507 0.078683 0.1875 0.34895 0.42193 0.62701 0.78115 0.83538 1.0781-0.13022 0.23954-0.23181 0.47865-0.30469 0.71819l-1.4531 0.21931c-0.057248 0.010457-0.10728 0.043121-0.149 0.10045-0.041711 0.057257-0.061942 0.11838-0.061942 0.1808v1.7344c0 0.0678 0.020229 0.12782 0.061942 0.18248 0.041713 0.05477 0.096363 0.08842 0.16406 0.09877l1.4297 0.21094c0.072878 0.25516 0.18076 0.51309 0.32143 0.77344-0.093686 0.13022-0.23441 0.31374-0.42187 0.55078-0.18747 0.23704-0.32038 0.40956-0.39844 0.51898-0.041713 0.05743-0.063616 0.11661-0.063616 0.17913 0 0.06772 0.018806 0.12873 0.055246 0.1808 0.2031 0.28135 0.63278 0.71884 1.2891 1.3125 0.057344 0.05734 0.12299 0.08538 0.19587 0.08538 0.078152 0 0.14213-0.02352 0.1942-0.07032l1.1016-0.83537c0.21365 0.10941 0.44796 0.20452 0.70312 0.28794l0.21931 1.4381c0.00527 0.06772 0.035744 0.12311 0.090402 0.16741 0.054658 0.044402 0.11797 0.066966 0.19085 0.066966h1.7344c0.15122 0 0.24472-0.07344 0.28125-0.21931 0.067604-0.26044 0.14267-0.74478 0.226-1.4531 0.24481-0.07817 0.48241-0.17655 0.7115-0.29632l1.0781 0.84375c0.07287 0.0468 0.14182 0.07032 0.20424 0.07032 0.1145 0 0.35832-0.18427 0.73326-0.55413 0.37513-0.36976 0.63296-0.651 0.77344-0.84375 0.04689-0.05203 0.07031-0.1131 0.07031-0.1808 0-0.06772-0.02652-0.13187-0.07868-0.1942-0.37494-0.45836-0.65299-0.81768-0.83538-1.0781 0.10414-0.19275 0.20573-0.43025 0.30469-0.7115l1.4448-0.21931c0.06243-0.01046 0.11575-0.04311 0.15737-0.10045 0.04161-0.057346 0.061939-0.11838 0.061939-0.18081v-1.7344c9.5e-5 -0.067714-0.02013-0.12772-0.06194-0.18248-0.04181-0.054772-0.09636-0.088418-0.16406-0.098772l-1.4297-0.21763c-0.07816-0.24999-0.18603-0.5063-0.32143-0.76674 0.09369-0.13022 0.23441-0.31374 0.42188-0.55078 0.18747-0.23704 0.32029-0.40956 0.39844-0.51897 0.04171-0.057343 0.06362-0.11661 0.06362-0.17913 0-0.072857-0.01872-0.13072-0.05524-0.17243-0.18747-0.26571-0.61715-0.70772-1.2891-1.3276-0.06233-0.052028-0.12827-0.078683-0.19587-0.078683-0.07816 0-0.14061 0.023512-0.1875 0.070312l-1.1083 0.83538c-0.21365-0.10941-0.44796-0.20461-0.70312-0.28795l-0.21931-1.4381c-0.0051773-0.067714-0.035744-0.12311-0.090402-0.16741-0.054754-0.044314-0.11778-0.066964-0.19085-0.066964h-1.7344zm0.86719 3.9994c0.55215 0 1.0241 0.19537 1.4146 0.58594 0.39057 0.39067 0.58594 0.86247 0.58594 1.4146 0 0.55215-0.19537 1.0241-0.58594 1.4146-0.39057 0.39066-0.86248 0.58594-1.4146 0.58594s-1.024-0.19528-1.4146-0.58594c-0.39057-0.39057-0.58594-0.86247-0.58594-1.4146 0-0.55215 0.19527-1.024 0.58594-1.4146 0.39066-0.39057 0.86257-0.58594 1.4146-0.58594z" color="#bebebe" fill="currentColor"/>
</svg>
